X: 3441
T: Gotlands bröllopsmarsch
R: marsch
O: Gotland
N: Arr. Elis Hansson. 
M: 4/4
L: 1/16
Q: 80
K: G

V: 1 
d2ef | g4 (d3d) d4 (BG)Bd | (d3c) c2c2 c4 A2c2 | (B2G2)B2d2 (e2d2)c2B2 | (B3A) ([DA]2[DA]2) [DA]4 d2ef | 
g4 (d3d) d4 (BG)Bd | (d3c) c2c2 c4 A2c2 | B2g2 (fe)dc B2AB c2F2 | (A3G) (G2G2) G4 :| 
|: G2AB | c4 (c3c) c4 (cB)AB | (B3d) (d2d2) d4 (de)fg | f4 (f3f) f2e2 d2ef | g4 g2fg b2a2 d2ef | 
| g4 (d3d) d4 (BG)Bd | (d3c) c2c2 c4 A2c2 | B2g2 (fe)dc B2AB c2F2 | (A3G) (G2G2) G4 :| 

V: 2
d2c2 | [G,DB]4(Bc)BA B4(GF)ED | [A,E]4([EA]B)AG F4D2EF | (G2F2)E2D2 (C2B,2E2D2) | G4(FG)FE F4d2c2 | 
[G,DB]4(Bc)BA B4(GF)ED | [A,E]4([EA]B)AG F4D2EF | G2B2 (dc)BA G4F2D2 | [G,D]4([G,D]2[G,D]2)[G,D]4 :| 
|: G2=F2 | (E=F)ED (E2C2) E4D2^F2 | G2D2 G2A2 B4B2G2 | ([DA]B)AG [DA]2E2 F2G2 [DA]2D2 | [G,DB]4B2d2 g2f2 d2c2 | 
[G,DB]4(Bc)BA B4(GF)ED | [A,E]4([EA]B)AG F4D2EF | G2B2 (dc)BA G4F2D2 | [G,D]4([G,D]2[G,D]2)[G,D]4 :| 

V: 3
D2D2 | [G,D]4([G,D]2[G,D]2)[G,D]4 G,2B,2 | A,4C4 D4F2D2 | [G,D]4D2B,2 G4G2G2 | D4[DA]2[DA]2 [DA]4D2D2 | 
[G,D]4([G,D]2[G,D]2)[G,D]4 G,2B,2 | A,4C4 D4F2D2 | [G,D]4([CG]2[CG]2) D4D2C2 | [G,D]4([G,D]2[G,D]2)[G,D]4 :| 
|: G2G2 | [CG]4([CG]2[CG]2) [CG]4^F2D2 | [G,G]4B,2C2 [G,D]4 G,2B,2 | D4([DA]2[DA]2) [DA]4F2D2 | [G,D]4G,2B,2 D4D2D2 | 
[G,D]4([G,D]2[G,D]2)[G,D]4 G,2B,2 | A,4C4 D4F2D2 | [G,D]4([CG]2[CG]2) D4D2C2 | [G,D]4([G,D]2[G,D]2)[G,D]4 :| 

(:musicend:)
(:music:)

